build/img/icons/js.svg

<svg width="96" height="96" viewBox="0 0 96 96" fill="none" xmlns="http://www.w3.org/2000/svg">
<path d="M66.0357 31.2525C67.9588 25.6208 77.8181 25.6208 80.2225 32.4259L91.4434 24.5136C88.4845 20.8358 82.5671 15.7946 72.0468 15.0612C55.215 13.8881 50.4059 29.8447 54.0126 41.1084C55.9896 47.2825 63.891 50.7774 70.628 53.7572C76.1816 56.2136 80.944 58.32 80.944 61.2889C80.944 66.6861 78.0587 69.0325 70.8448 69.0325C63.6312 69.0325 59.7839 61.054 59.7839 61.054L48.4752 67.6859C51.9204 73.3917 58.8525 81 71.326 81C91.2837 81 94.6502 70.9093 95.8526 63.166C97.055 55.4227 90.8028 46.7401 80.7037 43.4548C70.6045 40.1692 64.1121 36.8842 66.0357 31.2525Z" fill="#FFFDF8"/>
<path d="M27.3268 61.1517V15.9424H40.8713V65.3901C40.8713 72.9251 32.3171 81.8728 17.3466 80.931C2.37609 79.9889 0 69.1576 0 69.1576L10.9306 61.8582C10.9306 61.8582 13.0693 67.5093 17.8218 68.4511C22.5743 69.3932 27.3268 66.5672 27.3268 61.1517Z" fill="#FFFDF8"/>
</svg>

<svg width="96" height="96" fill="none" xmlns="http://www.w3.org/2000/svg"><path d="M66.036 31.253c1.923-5.632 11.782-5.632 14.186 1.173l11.221-7.912c-2.959-3.678-8.876-8.72-19.396-9.453-16.832-1.173-21.641 14.784-18.034 26.047 1.977 6.175 9.878 9.67 16.615 12.65 5.554 2.456 10.316 4.562 10.316 7.53 0 5.398-2.885 7.745-10.1 7.745-7.213 0-11.06-7.979-11.06-7.979l-11.309 6.632C51.92 73.392 58.852 81 71.326 81c19.958 0 23.324-10.09 24.527-17.834 1.202-7.743-5.05-16.426-15.15-19.711-10.099-3.286-16.59-6.57-14.667-12.202zM27.327 61.152v-45.21H40.87V65.39c0 7.535-8.554 16.483-23.524 15.541C2.377 79.989 0 69.158 0 69.158l10.93-7.3s2.14 5.651 6.892 6.593c4.752.942 9.505-1.884 9.505-7.3z" fill="#FFFDF8"/></svg>
